!!!COM: Bartok, Bela 
!!!OTL: Crossed Hands
!!!ONM: 99
!!!OPR: Mikrokosmos, Vol. IV
!! Boosey & Hawkes Ltd. (London) 1955, copyright 1940 p.9
**kern	**kern
*M3/4	*M3/4
=1	=1
4.cc	{8c
.	8d
.	4.e-
8b	.
8cc	.
8b	8f
=2	=2
4.cc	8e-
.	8d
.	4.c
8b	.
8a	.
8b	8B-}
=3	=3
4a	{8e-
.	8d
8cc	4c
8a	.
[4b	8d
.	8B
=4	=4
8b]	2c}
8a	.
8b	.
8cc	.
4b	4r
=5	=5
8a	{4.cc
8r	.
4.c	.
.	8dd
.	8ee-
8B	8ff
=6	=6
4.A	8ee-
.	8ff
.	4.cc
8B	.
8c	.
8B	8dd
=7	=7
4.A	8ee-
.	8dd
.	4ff
8B	.
8c	8ee-
8B	8b
=8	=8
8A	2cc}
8B	.
8c	.
8B	.
8A	4r
8B	.
=9	=9
8G	{2f*
8r	.
8g#	.
8cc	.
8b	4c}
8a	.
=10	=10
8g#	{4.f*
8a	.
8b	.
8cc	8e-
8a	4c}
8b	.
=11	=11
8a	{4f*
8g#	.
4b	8e-
.	8d
8cc	4c}
8b	.
=12	=12
4.a	8r
.	{8f
.	8e-
8g#	8f
8a	8c
8b	8B}
=13	=13
8cc	8e-~*
8a	2c
8g#	.
8b	.
8a	.
8cc	8e-~
=14	=14
8g#	[2c
8b	.
4a	.
8b	8c]
8g#	8r
=15	=15
8f#	{8ee-
8r	8dd
8F#	4.cc
8G#	.
8A	.
8B	8b-
=16	=16
8A	4.cc
8G#	.
4.F#	.
.	8dd
.	8ee-
8G#	8ff
=17	=17
8A	8cc
8G#	8dd
8F#	4ee-
8G#	.
8B	8dd
8G#	8ff
=18	=18
8F#	[2.ee-
8G#	.
8c	.
8A	.
8B	.
8G#	.
=19	=19
4.F#	8ee-]
.	8dd
.	4cc
8G#	.
[4B	8dd
.	8b}
=20	=20
8B]	{4.cc*
8G#	.
8F#	.
8G#	4ff}
8A	.
8B	8r
=21	=21
8r	{2c*
8g#	.
8a	.
8b	.
8f#	8f}
8g#	8r
=22	=22
8a	[{2cc*
8r	.
8F#	.
8G#	.
8A	8cc]
8B	8ff}
=23	=23
4r	2.cc
2c	.
==	==
*-	*-
